static/img/kroki/f95cac7f3546ea7df51a0aa451211314.svg

<?xml version="1.0" encoding="us-ascii" standalone="no"?><svg xmlns="http://www.w3.org/2000/svg" xmlns:xlink="http://www.w3.org/1999/xlink" contentStyleType="text/css" height="252px" preserveAspectRatio="none" style="width:285px;height:252px;" version="1.1" viewBox="0 0 285 252" width="285px" zoomAndPan="magnify"><defs/><g><!--class aws_ec2_internet_gateway--><g id="elem_aws_ec2_internet_gateway"><rect codeLine="22" fill="#3D176E" height="39.7891" id="aws_ec2_internet_gateway" rx="2.5" ry="2.5" style="stroke:#000D19;stroke-width:0.5;" width="271" x="7" y="206.58"/><ellipse cx="22" cy="226.4745" fill="#ADD1B2" rx="11" ry="11" style="stroke:#181818;stroke-width:1.0;"/><path d="M24.9688,232.1152 Q24.3906,232.412 23.75,232.5527 Q23.1094,232.7089 22.4063,232.7089 Q19.9063,232.7089 18.5781,231.0683 Q17.2656,229.412 17.2656,226.287 Q17.2656,223.162 18.5781,221.5058 Q19.9063,219.8495 22.4063,219.8495 Q23.1094,219.8495 23.75,220.0058 Q24.4063,220.162 24.9688,220.4589 L24.9688,223.1777 Q24.3438,222.5995 23.75,222.3339 Q23.1563,222.0527 22.5313,222.0527 Q21.1875,222.0527 20.5,223.1308 Q19.8125,224.1933 19.8125,226.287 Q19.8125,228.3808 20.5,229.4589 Q21.1875,230.5214 22.5313,230.5214 Q23.1563,230.5214 23.75,230.2558 Q24.3438,229.9745 24.9688,229.3964 L24.9688,232.1152 Z " fill="#000000"/><text fill="#D9B8FF" font-family="Helvetica" font-size="17" lengthAdjust="spacing" textLength="229" x="41" y="232.3598">aws_ec2_internet_gateway</text></g><!--class aws_region--><g id="elem_aws_region"><rect codeLine="24" fill="#3D176E" height="39.7891" id="aws_region" rx="2.5" ry="2.5" style="stroke:#000D19;stroke-width:0.5;" width="137" x="74" y="7"/><ellipse cx="89" cy="26.8945" fill="#ADD1B2" rx="11" ry="11" style="stroke:#181818;stroke-width:1.0;"/><path d="M91.9688,32.5352 Q91.3906,32.832 90.75,32.9727 Q90.1094,33.1289 89.4063,33.1289 Q86.9063,33.1289 85.5781,31.4883 Q84.2656,29.832 84.2656,26.707 Q84.2656,23.582 85.5781,21.9258 Q86.9063,20.2695 89.4063,20.2695 Q90.1094,20.2695 90.75,20.4258 Q91.4063,20.582 91.9688,20.8789 L91.9688,23.5977 Q91.3438,23.0195 90.75,22.7539 Q90.1563,22.4727 89.5313,22.4727 Q88.1875,22.4727 87.5,23.5508 Q86.8125,24.6133 86.8125,26.707 Q86.8125,28.8008 87.5,29.8789 Q88.1875,30.9414 89.5313,30.9414 Q90.1563,30.9414 90.75,30.6758 Q91.3438,30.3945 91.9688,29.8164 L91.9688,32.5352 Z " fill="#000000"/><text fill="#D9B8FF" font-family="Helvetica" font-size="17" lengthAdjust="spacing" textLength="95" x="108" y="32.7798">aws_region</text></g><!--class aws_vpc--><g id="elem_aws_vpc"><rect codeLine="26" fill="#3D176E" height="39.7891" id="aws_vpc" rx="2.5" ry="2.5" style="stroke:#000D19;stroke-width:0.5;" width="112" x="141.5" y="106.79"/><ellipse cx="156.5" cy="126.6845" fill="#ADD1B2" rx="11" ry="11" style="stroke:#181818;stroke-width:1.0;"/><path d="M159.4688,132.3252 Q158.8906,132.622 158.25,132.7627 Q157.6094,132.9189 156.9063,132.9189 Q154.4063,132.9189 153.0781,131.2783 Q151.7656,129.622 151.7656,126.497 Q151.7656,123.372 153.0781,121.7158 Q154.4063,120.0595 156.9063,120.0595 Q157.6094,120.0595 158.25,120.2158 Q158.9063,120.372 159.4688,120.6689 L159.4688,123.3877 Q158.8438,122.8095 158.25,122.5439 Q157.6563,122.2627 157.0313,122.2627 Q155.6875,122.2627 155,123.3408 Q154.3125,124.4033 154.3125,126.497 Q154.3125,128.5908 155,129.6689 Q155.6875,130.7314 157.0313,130.7314 Q157.6563,130.7314 158.25,130.4658 Q158.8438,130.1845 159.4688,129.6064 L159.4688,132.3252 Z " fill="#000000"/><text fill="#D9B8FF" font-family="Helvetica" font-size="17" lengthAdjust="spacing" textLength="70" x="175.5" y="132.5698">aws_vpc</text></g><!--link aws_region to aws_ec2_internet_gateway--><g id="link_aws_region_aws_ec2_internet_gateway"><path codeLine="28" d="M136.52,47.12 C131.92,62.95 125.96,86.09 123.5,106.79 C121.42,124.35 121.42,129.02 123.5,146.58 C125.69,165.02 130.66,185.39 134.97,200.81 " fill="none" id="aws_region-to-aws_ec2_internet_gateway" style="stroke:#1A83AF;stroke-width:2.0;"/><polygon fill="#1A83AF" points="136.52,205.25,137.9205,195.5012,135.1596,200.4386,130.2222,197.6778,136.52,205.25" style="stroke:#1A83AF;stroke-width:2.0;"/></g><!--link aws_region to aws_vpc--><g id="link_aws_region_aws_vpc"><path codeLine="29" d="M153.37,47.22 C162.1,62.75 174.43,84.67 183.84,101.4 " fill="none" id="aws_region-to-aws_vpc" style="stroke:#1A83AF;stroke-width:2.0;"/><polygon fill="#1A83AF" points="186.66,105.41,185.7233,95.6058,184.2039,101.0548,178.7549,99.5355,186.66,105.41" style="stroke:#1A83AF;stroke-width:2.0;"/></g><!--link aws_vpc to aws_ec2_internet_gateway--><g id="link_aws_vpc_aws_ec2_internet_gateway"><path codeLine="30" d="M186.63,147.01 C177.9,162.54 165.57,184.46 156.16,201.18 " fill="none" id="aws_vpc-to-aws_ec2_internet_gateway" style="stroke:#1A83AF;stroke-width:2.0;"/><polygon fill="#1A83AF" points="153.34,205.2,161.2451,199.3255,155.7961,200.8448,154.2767,195.3958,153.34,205.2" style="stroke:#1A83AF;stroke-width:2.0;"/></g><!--SRC=[ZP11Jy9048Nl_8fDE9DGYBQzc5GIeXTYn9inpT2TBPkskytiG8F6_su1CMihuFMzRzwycRMMAB2gUISgh5P8Rk0ARMeWg4H2P9kPBIs9eLAWfc7Nd5l3Lu45L2WUiDmYwmownCjQPuL1vyJ4i-uXAtAo6oEFyKnWN6kXOO-QbU1SmanwjM7qoiXu5IdL9RkXmwaCmbliOPOaqZSo7ezb47UHgwiktlr3BFKxYi1_si8ozchsLXoeYottX5UoT-Z9Fzln2QJK9XStdlPyx4G6wPU-N8EqpPvMK3f_ZMCajBohSTQx2kD8gl1F-F4SdEq_9w1nAMQJL9jsmY2dEJ0si1CVWqyF8SorDHrnMsS7nGD6hyCWYQR9_6rqTpRxua0REZY5_olj2m00]--></g></svg>

<svg xmlns="http://www.w3.org/2000/svg" width="285" height="252" preserveAspectRatio="none" style="width:285px;height:252px"><rect width="271" height="39.789" x="7" y="206.58" fill="#3D176E" rx="2.5" ry="2.5" style="stroke:#000d19;stroke-width:.5"/><circle cx="22" cy="226.475" r="11" fill="#ADD1B2" style="stroke:#181818;stroke-width:1"/><path d="M24.969 232.115q-.578.297-1.219.438-.64.156-1.344.156-2.5 0-3.828-1.64-1.312-1.657-1.312-4.782t1.312-4.781q1.328-1.656 3.828-1.656.703 0 1.344.156.656.156 1.219.453v2.719q-.625-.578-1.219-.844-.594-.281-1.219-.281-1.343 0-2.031 1.078-.688 1.062-.688 3.156 0 2.094.688 3.172.688 1.062 2.031 1.062.625 0 1.219-.265.594-.281 1.219-.86v2.72Z"/><text x="41" y="232.36" fill="#D9B8FF" font-family="Helvetica" font-size="17" textLength="229">aws_ec2_internet_gateway</text><rect width="137" height="39.789" x="74" y="7" fill="#3D176E" rx="2.5" ry="2.5" style="stroke:#000d19;stroke-width:.5"/><circle cx="89" cy="26.895" r="11" fill="#ADD1B2" style="stroke:#181818;stroke-width:1"/><path d="M91.969 32.535q-.578.297-1.219.438-.64.156-1.344.156-2.5 0-3.828-1.64-1.312-1.657-1.312-4.782t1.312-4.781q1.328-1.656 3.828-1.656.703 0 1.344.156.656.156 1.219.453v2.719q-.625-.578-1.219-.844-.594-.281-1.219-.281-1.344 0-2.031 1.078-.688 1.062-.688 3.156 0 2.094.688 3.172.688 1.062 2.031 1.062.625 0 1.219-.265.594-.281 1.219-.86v2.72Z"/><text x="108" y="32.78" fill="#D9B8FF" font-family="Helvetica" font-size="17" textLength="95">aws_region</text><rect width="112" height="39.789" x="141.5" y="106.79" fill="#3D176E" rx="2.5" ry="2.5" style="stroke:#000d19;stroke-width:.5"/><circle cx="156.5" cy="126.684" r="11" fill="#ADD1B2" style="stroke:#181818;stroke-width:1"/><path d="M159.469 132.325q-.578.297-1.219.438-.64.156-1.344.156-2.5 0-3.828-1.64-1.312-1.657-1.312-4.782t1.312-4.781q1.328-1.656 3.828-1.656.703 0 1.344.156.656.156 1.219.453v2.719q-.625-.579-1.219-.844-.594-.281-1.219-.281-1.344 0-2.031 1.078-.688 1.062-.688 3.156 0 2.094.688 3.172.688 1.062 2.031 1.062.625 0 1.219-.265.594-.281 1.219-.86v2.72Z"/><text x="175.5" y="132.57" fill="#D9B8FF" font-family="Helvetica" font-size="17" textLength="70">aws_vpc</text><path fill="none" d="M136.52 47.12c-4.6 15.83-10.56 38.97-13.02 59.67-2.08 17.56-2.08 22.23 0 39.79 2.19 18.44 7.16 38.81 11.47 54.23" style="stroke:#1a83af;stroke-width:2"/><path fill="#1A83AF" d="m136.52 205.25 1.4-9.749-2.76 4.938-4.938-2.761 6.298 7.572z" style="stroke:#1a83af;stroke-width:2"/><path fill="none" d="M153.37 47.22c8.73 15.53 21.06 37.45 30.47 54.18" style="stroke:#1a83af;stroke-width:2"/><path fill="#1A83AF" d="m186.66 105.41-.937-9.804-1.52 5.449-5.448-1.52 7.905 5.875z" style="stroke:#1a83af;stroke-width:2"/><path fill="none" d="M186.63 147.01c-8.73 15.53-21.06 37.45-30.47 54.17" style="stroke:#1a83af;stroke-width:2"/><path fill="#1A83AF" d="m153.34 205.2 7.905-5.874-5.449 1.519-1.52-5.45-.936 9.805z" style="stroke:#1a83af;stroke-width:2"/></svg>
